X: 10
T: Missa Sine nomine i / Agnus Dei
N: Derived from Tin1002e-Missa_Sine_nomine_I-Agnus.krn
C: Johannes Tinctoris
%%abc-version 2.0
%%abcx-abcm2ps-target-version 5.9.1 (29 Sep 2008)
%%abc-creator hum2abc beta
%%abcx-conversion-date 2019/02/17 07:34:55
%%abc-edited-by Jesse Rodin
%%abc-edited-by Chris Gage 01-13-2015
%%abcx-initial-encoding-date 2015/01/20/
%%humdrum-veritas 459031218
%%humdrum-veritas-data 3810784386
%%linebreak <none>
%%barnumbers 0
L: 1/4
M: 3/1
Q: 1/2=120
V: 1 clef=treble-8
V: 2 clef=bass
V: 3 clef=bass
K: Bb
[V:1] c8B4 | 
[V:2] C,6E,2D,4 | 
[V:3] C,3B,,A,,F,,C,2G,,4 | 
[V:1] c6d2e3d/c/ | 
[V:2] C,2E,4F,2G,4- | 
[V:3] C,,3C,,2E,,D,,2C,,4- | 
[V:1] e2d3cB2A4 | 
[V:2] G,8^F,4 | 
[V:3] C,,2G,,3A,,B,,C,D,4 | 
[V:1] G3AB4c4 | 
[V:2] G,3F,/E,/D,4C,3D,/E,/ | 
[V:3] z2G,,3F,,G,,2_A,,3G,,/F,,/ | 
[V:1] z4z4z2d2 | 
[V:2] F,2E,3D,C,4=B,,2 | 
[V:3] _A,,2G,,3F,,E,,2D,,4 | 
[V:1] e3d/c/B4z2c2 | 
[V:2] C,4z2D,2E,3D,/C,/ | 
[V:3] C,,4G,,4C,3B,,/A,,/ | 
[V:1] d3c/B/A4B4 | 
[V:2] B,,3C,D,3/C,/A,,2G,,4 | 
[V:3] G,,4z2C,2D,3C,/B,,/ | 
[V:1] c4A2B2c2d2- | 
[V:2] z2C,2D,3C,/B,,/A,,z2G,, | 
[V:3] A,,4z2G,,2F,,2B,,2- | 
[V:1] dcBA/G/F2G3^F/=E/^F2 | 
[V:2] D,E,F,3E,D,4C,2 | 
[V:3] B,,C,D,3C,B,,2A,,4 | 
[V:1] G4B4A4 | 
[V:2] D,2E,2D,2G,2z2F,2 | 
[V:3] G,,2C,2B,,G,,2E,,F,,2D,,2 | 
[V:1] G3FE2C2D4 | 
[V:2] E,2D,3C,C,3B,,/A,,/B,,C,/D,/ | 
[V:3] C,2D,B,,2C,A,,2G,,4 | 
[V:1] C3D/E/F2D4C2 | 
[V:2] E,3D,/C,/D,2G,3F,/E,/F,2 | 
[V:3] z2C,2B,,4A,,4 | 
[V:1] D3EF2G4A2- | 
[V:2] G,2F,4D,2E,2F,2- | 
[V:3] G,,2B,,3A,,B,,2C,2F,,2- | 
[V:1] ABc2d4e2f2- | 
[V:2] F,D,E,2F,2G,4F,2 | 
[V:3] F,,G,,/F,,/E,,2D,,z2G,,C,B,,/C,/D,2 | 
[V:1] fedc/B/AGc4=B2 | 
[V:2] D,3E,F,G,E,2D,4 | 
[V:3] B,,3C,D,E,C,2G,,4 | 
[V:1] c2G2zc2Gc3/d/cB/A/ | 
[V:2] C,2E,3F,G,3F,E,D,/C,/ | 
[V:3] C,12 | 
[V:1] B12 | 
[V:2] D,12 | 
[V:3] G,,12 | 
[V:1] [M:3/1]z12 | 
[V:2] [M:3/1]E,6D,C,B,,4 | 
[V:3] [M:3/1]C,8D,4 | 
[V:1] c8d4 | 
[V:2] _A,,8G,,4 | 
[V:3] E,6D,C,B,,4 | 
[V:1] e6dcB2c2- | 
[V:2] C,8D,2E,2 | 
[V:3] _A,,8G,,2C,2 | 
[V:1] cBAGF2B4A2 | 
[V:2] F,3E,D,C,B,,2C,4 | 
[V:3] F,,4B,,2G,,2F,,4 | 
[V:1] B4E4z2B2 | 
[V:2] B,,4z2B,4E,2- | 
[V:3] G,,2E,,6E,,4 | 
[V:1] c2def2e4d2 | 
[V:2] E,2D,C,D,2E,2F,4 | 
[V:3] C,,4z2C,2B,,4 | 
[V:1] c2B3AG2F4 | 
[V:2] E,3F,G,2E,4D,2 | 
[V:3] C,2E,6B,,4 | 
[V:1] E2G3FE2D4 | 
[V:2] E,4B,,4G,,4 | 
[V:3] C,2E,3D,C,2=B,,3A,, | 
[V:1] C2E4F2G2A2 | 
[V:2] G,6F,2E,2D,C, | 
[V:3] C,6D,2C,2B,,A,, | 
[V:1] B2cde2defedc | 
[V:2] D,2E,F,G,2F,G,_A,G,F,E, | 
[V:3] G,,8F,,4 | 
[V:1] B2e3dc4=B2 | 
[V:2] D,2G,3F,E,2D,4 | 
[V:3] G,,2C,,3D,,E,,F,,G,,4 | 
[V:1] c12 ||  
[V:2] C,12 ||  
[V:3] C,,12 ||  
[V:1]  [K:Bb] [K:clef=treble-8][M:2/1]c8 | 
[V:2]  [K:Bb] [K:clef=bass][M:2/1]C,8 | 
[V:3]  [K:Bb] [K:clef=bass][M:2/1]z8 | 
[V:1] c6BA | 
[V:2] E,4F,4 | 
[V:3] z8 | 
[V:1] B4z2c2 | 
[V:2] G,6_A,2- | 
[V:3] z8 | 
[V:1] F2G2_A4 | 
[V:2] A,2G,3E,F,2 | 
[V:3] z8 | 
[V:1] B2E3FG2- | 
[V:2] G,3_A,B,2E,2- | 
[V:3] z8 | 
[V:1] GFE2F2G2 | 
[V:2] E,F,G,2D,2E,2- | 
[V:3] z8 | 
[V:1] C4E4 | 
[V:2] E,F,G,2C,3=B,,/A,,/ | 
[V:3] z8 | 
[V:1] D4z4 | 
[V:2] =B,,4C,2E,2- | 
[V:3] z4C,4 | 
[V:1] z8 | 
[V:2] E,2D,2F,2G,A, | 
[V:3] B,,3C,D,4 | 
[V:1] z8 | 
[V:2] B,3A,F,2G,2- | 
[V:3] G,,4B,,4 | 
[V:1] z8 | 
[V:2] G,2^F,2G,4 | 
[V:3] A,,4G,,4 | 
[V:1] B4c2d2- | 
[V:2] z2E,4F,2 | 
[V:3] z8 | 
[V:1] dcB2cBAG | 
[V:2] G,4E,2F,2- | 
[V:3] z8 | 
[V:1] c4z2B2 | 
[V:2] F,E,C,2D,4 | 
[V:3] z8 | 
[V:1] c2d2e2dc | 
[V:2] E,2F,2G,3A, | 
[V:3] z8 | 
[V:1] d2B2A4 | 
[V:2] B,2G,4^F,2 | 
[V:3] z8 | 
[V:1] z2B3AG2 | 
[V:2] G,8 | 
[V:3] z8 | 
[V:1] A3Bc2d2 | 
[V:2] F,6D,2 | 
[V:3] z8 | 
[V:1] G2c4=B2 | 
[V:2] E,3F,D,4 | 
[V:3] z8 | 
[V:1] c8 | 
[V:2] z2E,3D,C,2 | 
[V:3] C,8 | 
[V:1] z8 | 
[V:2] D,3E,F,2G,2 | 
[V:3] B,,6G,,2 | 
[V:1] z8 | 
[V:2] C,2F,4=E,2 | 
[V:3] A,,2B,,2G,,4 | 
[V:1] z8 | 
[V:2] F,3E,C,3D, | 
[V:3] z2F,,3E,,C,,2- | 
[V:1] z8 | 
[V:2] E,3D,E,2F,2- | 
[V:3] C,,2C,3B,,D,2- | 
[V:1] z8 | 
[V:2] F,E,C,2D,4 | 
[V:3] D,C,A,,2=B,,4 | 
[V:1] z4G4- | 
[V:2] C,6D,2 | 
[V:3] C,4z4 | 
[V:1] G2A2B4- | 
[V:2] E,6D,C, | 
[V:3] z8 | 
[V:1] B2A4G2- | 
[V:2] B,,2C,2D,2E,2- | 
[V:3] z8 | 
[V:1] G2F2E2DC | 
[V:2] E,2D,2C,2B,,A,, | 
[V:3] z8 | 
[V:1] !fermata!D8 | 
[V:2] !fermata!B,,8 | 
[V:3] !fermata!G,,8 | 
[V:1] E6F2 | 
[V:2] G,8 | 
[V:3] C,8 | 
[V:1] G8 | 
[V:2] E,6D,C, | 
[V:3] C,8 | 
[V:1] G6A2 | 
[V:2] E,8 | 
[V:3] C,8 | 
[V:1] !fermata!B8 | 
[V:2] !fermata!D,8 | 
[V:3] !fermata!G,,8 | 
[V:1] c6BA | 
[V:2] E,8 | 
[V:3] C,8 | 
[V:1] B4_A2G2- | 
[V:2] F,4E,4 | 
[V:3] D,4C,4 | 
[V:1] G2^F2^F2=E^F | 
[V:2] D,2C,B,,C,4 | 
[V:3] B,,2A,,G,,A,,4 | 
[V:1] G8 | 
[V:2] D,8 | 
[V:3] G,,8- | 
[V:1] z4D4 | 
[V:2] G,8- | 
[V:3] G,,8 | 
[V:1] E6DC | 
[V:2] G,8- | 
[V:3] C,6B,,A,, | 
[V:1] D4z2C2 | 
[V:2] G,8 | 
[V:3] B,,3A,,B,,2C,2- | 
[V:1] E2F2G4 | 
[V:2] z4E,4 | 
[V:3] C,2D,2C,4 | 
[V:1] z4A4 | 
[V:2] F,6D,2- | 
[V:3] F,,4D,,4 | 
[V:1] B6AG | 
[V:2] D,2G,4F,E, | 
[V:3] G,,8 | 
[V:1] A4z2G2 | 
[V:2] F,6G,2- | 
[V:3] D,4E,4- | 
[V:1] B2c2d4 | 
[V:2] G,2F,E,D,4 | 
[V:3] E,2D,C,=B,,3A,, | 
[V:1] e4d2f2- | 
[V:2] C,2G,4A,2 | 
[V:3] C,4z4 | 
[V:1] fedce4 | 
[V:2] F,3E,G,4- | 
[V:3] D,4C,3B,, | 
[V:1] d4c3B | 
[V:2] G,2F,3E,C,2- | 
[V:3] G,,2B,,2F,,2F,,2- | 
[V:1] AGc4=B2 | 
[V:2] C,2E,2D,4 | 
[V:3] F,,E,,C,,2G,,4 | 
[V:1] c8 ||  
[V:2] C,8 ||  
[V:3] C,,8 ||  



